icons/2_Variations/Norton fg.var.svg

<svg width="1024" height="1024" viewBox="0 0 1024 1024" fill="none" xmlns="http://www.w3.org/2000/svg">
<g clip-path="url(#clip0_3_191)">
<path d="M512 1024C794.77 1024 1024 794.77 1024 512C1024 229.23 794.77 0 512 0C229.23 0 0 229.23 0 512C0 794.77 229.23 1024 512 1024Z" fill="#F9DE81"/>
<path d="M768 512C768 653.42 653.16 768.47 512 768.47C370.84 768.47 256 653.43 256 512C256 370.57 370.84 255.52 512 255.52C549.75 255.467 587.038 263.83 621.15 280L578.63 334.88C557.339 326.832 534.762 322.722 512 322.75C412.46 322.75 330.67 400.26 323.59 498.22C323.45 500.22 323.34 502.22 323.26 504.22C323.153 506.813 323.097 509.42 323.09 512.04C323.09 616.39 407.83 701.28 512 701.28C616.17 701.28 700.9 616.36 700.9 512C700.905 498.332 699.437 484.703 696.52 471.35L745.86 407.68C760.499 440.507 768.044 476.056 768 512ZM715.81 357L672.69 412.63L521.32 608L397.83 497.36L442.54 447.24L512.42 509.83L627 362L668.12 308.92C686.059 322.783 702.093 338.949 715.81 357Z" fill="#56595B"/>
</g>
<defs>
<clipPath id="clip0_3_191">
<rect width="1024" height="1024" fill="white"/>
</clipPath>
</defs>
</svg>

<svg width="1024" height="1024" fill="none" xmlns="http://www.w3.org/2000/svg"><g clip-path="url(#a)"><path d="M512 1024c282.77 0 512-229.23 512-512S794.77 0 512 0 0 229.23 0 512s229.23 512 512 512Z" fill="#F9DE81"/><path d="M768 512c0 141.42-114.84 256.47-256 256.47S256 653.43 256 512s114.84-256.48 256-256.48A253.99 253.99 0 0 1 621.15 280l-42.52 54.88A187.789 187.789 0 0 0 512 322.75c-99.54 0-181.33 77.51-188.41 175.47-.14 2-.25 4-.33 6-.107 2.593-.163 5.2-.17 7.82 0 104.35 84.74 189.24 188.91 189.24S700.9 616.36 700.9 512a190.145 190.145 0 0 0-4.38-40.65l49.34-63.67A255.372 255.372 0 0 1 768 512Zm-52.19-155-43.12 55.63L521.32 608 397.83 497.36l44.71-50.12 69.88 62.59L627 362l41.12-53.08A258.173 258.173 0 0 1 715.81 357Z" fill="#56595B"/></g><defs><clipPath id="a"><path fill="#fff" d="M0 0h1024v1024H0z"/></clipPath></defs></svg>
